img/privat24.svg

<?xml version="1.0" encoding="UTF-8"?>
<svg viewBox="0 0 174 46" xmlns="http://www.w3.org/2000/svg">
<path d="m13.776 37.945l-11.58-0.013 0.013-11.58 11.58 0.013-0.013 11.58z" clip-rule="evenodd" fill-rule="evenodd"/>
<path d="m41.776 38.418h-5.178v-18.04h18.628v18.04h-5.175v-14.538h-8.275v14.538zm15.958-13.443v17.862h4.766v-6.112c1.597 1.707 4.2 1.837 4.83 1.837 4.546 0 7.335-2.857 7.335-7.016 0-4.327-2.758-7.061-7.243-7.061-1.128 0-3.325 0.18-5.139 2.06h-0.099l0.035-1.57h-4.485zm4.55 6.523c0-3.66 2.285-4.377 3.725-4.377 1.413 0 3.702 0.717 3.702 4.377 0 2.267-0.969 4.434-3.702 4.434-2.789 0-3.726-2.167-3.726-4.434h1e-3zm24.203 5c-1.756 1.628-3.451 2.064-5.33 2.064-5.141 0-5.334-3.815-5.334-5.386v-8.201h4.768v7.582c0 2.601 0.913 3.376 2.667 3.376 3.012 0 3.229-2.658 3.229-3.613v-7.345h4.762v13.094h-4.762v-1.571zm11.598-3.941h2.917c2.257 0 2.73 0.664 2.73 1.542 0 0.57-0.314 1.34-2.666 1.34h-2.98v-2.882h-1e-3zm-4.762-7.582v13.095h9.465c3.452 0 5.834-0.67 5.834-3.343 0-2.068-1.162-2.972-3.796-3.433v-0.079c1.723-0.23 3.23-1.293 3.23-3.069 0-3.17-3.764-3.17-5.234-3.17h-9.499v-1e-3zm4.762 2.63h2.571c1.352 0 2.509 0.205 2.509 1.289 0 1.185-1.817 1.213-2.6 1.213h-2.48v-2.503 1e-3zm16.56 1.599c0-1.934 2.062-2.083 2.912-2.083 0.535 0 2.512 0.025 2.57 1.726v0.357c-0.092 1.292-1.345 1.027-4.858 1.47-2.888 0.385-5.923 1.109-5.923 4.098 0 1.084 0.466 3.79 5.547 3.79 1.945 0 4.075-0.492 5.33-1.783h0.095l0.406 1.29h5.013v-0.227c-0.906-0.184-0.964-1.063-0.935-2.475l0.094-5.983c0.03-1.52-0.123-4.899-7.309-4.899-1.72 0-7.272 0.155-7.491 4.719h4.549zm5.517 3.454c0 2.63-2.32 3.275-3.486 3.275-0.87 0-2.441-0.285-2.441-1.524 0-1.469 1.786-1.75 2.791-1.877 1.849-0.262 1.694-0.187 3.136-0.701v0.827zm5.266-5.054v-2.63h15.302v2.63h-5.266v10.466h-4.77v-10.466h-5.266z" clip-rule="evenodd" fill="#74B027" fill-rule="evenodd"/>
<path d="M2 38.12H13.941V26.34H2V38.12Z" clip-rule="evenodd" fill-rule="evenodd"/>
<path d="M26.219 14.226V31.894H23.789C22.735 23.158 17.17 17.67 8.312 16.629V14.226H26.22H26.219ZM2 8V22.656H5.157C13.462 22.656 17.677 26.811 17.677 35.006V38.119H32.533V8H2Z" clip-rule="evenodd" fill="#74B027" fill-rule="evenodd"/>
<path d="m154.66 34.559v3.4409h-12.986c0.141-1.3008 0.563-2.5312 1.266-3.6914 0.703-1.169 2.092-2.7158 4.166-4.6406 1.67-1.5557 2.694-2.6104 3.072-3.1641 0.51-0.7646 0.764-1.5205 0.764-2.2676 0-0.8261-0.224-1.459-0.672-1.8984-0.439-0.4483-1.05-0.6724-1.832-0.6724-0.774 0-1.389 0.2329-1.846 0.6988-0.457 0.4658-0.721 1.2392-0.791 2.3203l-3.692-0.3692c0.22-2.039 0.91-3.5024 2.07-4.3901s2.611-1.3315 4.351-1.3315c1.907 0 3.406 0.5141 4.495 1.5424 1.09 1.0284 1.635 2.3072 1.635 3.8365 0 0.8701-0.158 1.7006-0.474 2.4917-0.308 0.7822-0.8 1.604-1.477 2.4653-0.448 0.5713-1.257 1.3931-2.426 2.4653-1.169 1.0723-1.911 1.7842-2.228 2.1358-0.307 0.3515-0.558 0.6943-0.751 1.0283h7.356zm9.782 3.4409v-3.8892h-7.91v-3.2431l8.385-12.274h3.111v12.261h2.4v3.2563h-2.4v3.8892h-3.586zm0-7.1455v-6.605l-4.442 6.605h4.442z" fill="#74B027"/>
</svg>

<svg width="174" height="46" viewBox="0 0 174 46" fill="none" xmlns="http://www.w3.org/2000/svg">
<path fill-rule="evenodd" clip-rule="evenodd" d="M13.776 37.945L2.19598 37.932L2.20898 26.352L13.789 26.365L13.776 37.945Z" fill="black"/>
<path fill-rule="evenodd" clip-rule="evenodd" d="M41.776 38.418H36.598V20.378H55.226V38.418H50.051V23.88H41.776V38.418ZM57.734 24.975V42.837H62.5V36.725C64.097 38.432 66.7 38.562 67.33 38.562C71.876 38.562 74.665 35.705 74.665 31.546C74.665 27.219 71.907 24.485 67.422 24.485C66.294 24.485 64.097 24.665 62.283 26.545H62.184L62.219 24.975H57.734V24.975ZM62.284 31.498C62.284 27.838 64.569 27.121 66.009 27.121C67.422 27.121 69.711 27.838 69.711 31.498C69.711 33.765 68.742 35.932 66.009 35.932C63.22 35.932 62.283 33.765 62.283 31.498H62.284ZM86.487 36.498C84.731 38.126 83.036 38.562 81.157 38.562C76.016 38.562 75.823 34.747 75.823 33.176V24.975H80.591V32.557C80.591 35.158 81.504 35.933 83.258 35.933C86.27 35.933 86.487 33.275 86.487 32.32V24.975H91.249V38.069H86.487V36.498ZM98.085 32.557H101.002C103.259 32.557 103.732 33.221 103.732 34.099C103.732 34.669 103.418 35.439 101.066 35.439H98.086V32.557H98.085ZM93.323 24.975V38.07H102.788C106.24 38.07 108.622 37.4 108.622 34.727C108.622 32.659 107.46 31.755 104.826 31.294V31.215C106.549 30.985 108.056 29.922 108.056 28.146C108.056 24.976 104.292 24.976 102.822 24.976H93.323V24.975ZM98.085 27.605H100.656C102.008 27.605 103.165 27.81 103.165 28.894C103.165 30.079 101.348 30.107 100.565 30.107H98.085V27.604V27.605ZM114.645 29.204C114.645 27.27 116.707 27.121 117.557 27.121C118.092 27.121 120.069 27.146 120.127 28.847V29.204C120.035 30.496 118.782 30.231 115.269 30.674C112.381 31.059 109.346 31.783 109.346 34.772C109.346 35.856 109.812 38.562 114.893 38.562C116.838 38.562 118.968 38.07 120.223 36.779H120.318L120.724 38.069H125.737V37.842C124.831 37.658 124.773 36.779 124.802 35.367L124.896 29.384C124.926 27.864 124.773 24.485 117.587 24.485C115.867 24.485 110.315 24.64 110.096 29.204H114.645V29.204ZM120.162 32.658C120.162 35.288 117.842 35.933 116.676 35.933C115.806 35.933 114.235 35.648 114.235 34.409C114.235 32.94 116.021 32.659 117.026 32.532C118.875 32.27 118.72 32.345 120.162 31.831V32.658V32.658ZM125.428 27.604V24.974H140.73V27.604H135.464V38.07H130.694V27.604H125.428Z" fill="#74B027"/>
<path fill-rule="evenodd" clip-rule="evenodd" d="M2 38.12H13.941V26.34H2V38.12Z" fill="black"/>
<path fill-rule="evenodd" clip-rule="evenodd" d="M26.219 14.226V31.894H23.789C22.735 23.158 17.17 17.67 8.312 16.629V14.226H26.22H26.219ZM2 8V22.656H5.157C13.462 22.656 17.677 26.811 17.677 35.006V38.119H32.533V8H2Z" fill="#74B027"/>
<path d="M154.658 34.5591V38H141.672C141.813 36.6992 142.235 35.4688 142.938 34.3086C143.641 33.1396 145.03 31.5928 147.104 29.668C148.774 28.1123 149.798 27.0576 150.176 26.5039C150.686 25.7393 150.94 24.9834 150.94 24.2363C150.94 23.4102 150.716 22.7773 150.268 22.3379C149.829 21.8896 149.218 21.6655 148.436 21.6655C147.662 21.6655 147.047 21.8984 146.59 22.3643C146.133 22.8301 145.869 23.6035 145.799 24.6846L142.107 24.3154C142.327 22.2764 143.017 20.813 144.177 19.9253C145.337 19.0376 146.788 18.5938 148.528 18.5938C150.435 18.5938 151.934 19.1079 153.023 20.1362C154.113 21.1646 154.658 22.4434 154.658 23.9727C154.658 24.8428 154.5 25.6733 154.184 26.4644C153.876 27.2466 153.384 28.0684 152.707 28.9297C152.259 29.501 151.45 30.3228 150.281 31.395C149.112 32.4673 148.37 33.1792 148.053 33.5308C147.746 33.8823 147.495 34.2251 147.302 34.5591H154.658ZM164.44 38V34.1108H156.53V30.8677L164.915 18.5938H168.026V30.8545H170.426V34.1108H168.026V38H164.44ZM164.44 30.8545V24.2495L159.998 30.8545H164.44Z" fill="#74B027"/>
</svg>
